Papirus/64x64/places/folder-blue-snap.svg

<svg xmlns="http://www.w3.org/2000/svg" width="64" height="64" version="1">
 <rect style="opacity:.2" width="56" height="36" x="4" y="22" rx="2.8" ry="2.8"/>
 <path style="fill:#4877b1" d="m6.8 7c-1.55 0-2.8 1.25-2.8 2.8v36.4c0 1.55 1.25 2.8 2.8 2.8h50.4c1.55 0 2.8-1.25 2.8-2.8v-30.4c0-1.55-1.25-2.8-2.8-2.8h-27.2v-3.2c0-1.555-1.25-2.8-2.8-2.8z"/>
 <rect style="opacity:.2" width="56" height="36" x="4" y="20" rx="2.8" ry="2.8"/>
 <rect style="fill:#e4e4e4" width="48" height="22" x="8" y="16" rx="2.8" ry="2.8"/>
 <rect style="fill:#5294e2" width="56" height="36" x="4" y="21" rx="2.8" ry="2.8"/>
 <path style="fill:#ffffff;opacity:.1" d="m6.8 7c-1.55 0-2.8 1.25-2.8 2.8v1c0-1.55 1.25-2.8 2.8-2.8h20.4c1.55 0 2.8 1.2458 2.8 2.8v-1c0-1.5542-1.25-2.8-2.8-2.8zm23.2 6v1h27.2c1.545 0 2.8 1.25 2.8 2.8v-1c0-1.55-1.25-2.8-2.8-2.8z"/>
 <path style="fill:#1d344f" d="m22 29 10 12v-8zm11 4 9 5-2-5zm0 1v7l5-4zm-5 4-3.5 11 7.5-6.5z"/>
</svg>

<svg xmlns="http://www.w3.org/2000/svg" width="64" height="64" version="1">
 <rect style="opacity:0.2" width="56" height="36" x="4" y="22" rx="2.8" ry="2.8"/>
 <path style="fill:#4877b1" d="M 6.8,7 C 5.25,7 4,8.25 4,9.8 V 46.2 C 4,47.75 5.25,49 6.8,49 H 57.2 C 58.75,49 60,47.75 60,46.2 V 15.8 C 60,14.25 58.75,13 57.2,13 H 30 V 9.8 C 30,8.245 28.75,7 27.2,7 Z"/>
 <rect style="opacity:0.2" width="56" height="36" x="4" y="20" rx="2.8" ry="2.8"/>
 <rect style="fill:#e4e4e4" width="48" height="22" x="8" y="16" rx="2.8" ry="2.8"/>
 <rect style="fill:#5294e2" width="56" height="36" x="4" y="21" rx="2.8" ry="2.8"/>
 <path style="opacity:0.1;fill:#ffffff" d="M 6.8,7 C 5.25,7 4,8.25 4,9.8 V 10.8 C 4,9.25 5.25,8 6.8,8 H 27.2 C 28.75,8 30,9.2458 30,10.8 V 9.8 C 30,8.2458 28.75,7 27.2,7 Z M 30,13 V 14 H 57.2 C 58.745,14 60,15.25 60,16.8 V 15.8 C 60,14.25 58.75,13 57.2,13 Z"/>
 <path style="fill:#1d344f" d="m22 29 10 12v-8zm11 4 9 5-2-5zm0 1v7l5-4zm-5 4-3.5 11 7.5-6.5z"/>
</svg>
